server/website/public/icons/base/anonym.svg

<svg width="48" height="48" viewBox="0 0 48 48" fill="none" xmlns="http://www.w3.org/2000/svg">
<path d="M36.144 27.6337C31.68 27.6337 27.936 30.8533 26.976 35.1381C24.696 34.1456 22.608 34.4119 21.024 35.1139C20.04 30.8049 16.296 27.6337 11.856 27.6337C6.648 27.6337 2.4 31.9669 2.4 37.3168C2.4 42.6668 6.648 47 11.856 47C16.8 47 20.832 43.0783 21.216 38.0915C22.032 37.5105 24.168 36.4212 26.784 38.1399C27.216 43.1025 31.2 47 36.144 47C41.352 47 45.6 42.6668 45.6 37.3168C45.6 31.9669 41.352 27.6337 36.144 27.6337ZM11.856 44.2403C8.112 44.2403 5.112 41.1417 5.112 37.3168C5.112 33.492 8.136 30.3934 11.856 30.3934C15.6 30.3934 18.6 33.492 18.6 37.3168C18.6 41.1417 15.6 44.2403 11.856 44.2403ZM36.144 44.2403C32.4 44.2403 29.4 41.1417 29.4 37.3168C29.4 33.492 32.4 30.3934 36.144 30.3934C39.888 30.3934 42.912 33.492 42.912 37.3168C42.912 41.1417 39.864 44.2403 36.144 44.2403ZM48 21.5817H0V25.2129H48V21.5817ZM32.472 2.53011C31.944 1.34392 30.6 0.714515 29.328 1.12605L24 2.91743L18.648 1.12605L18.528 1.10184C17.256 0.738723 15.912 1.41654 15.432 2.65115L9.6 17.9505H38.4L32.544 2.65115L32.472 2.53011Z" fill="black"/>
</svg>

<svg width="48" height="48" fill="none" xmlns="http://www.w3.org/2000/svg"><path d="M36.144 27.634c-4.464 0-8.208 3.22-9.168 7.504-2.28-.992-4.368-.726-5.952-.024-.984-4.31-4.728-7.48-9.168-7.48-5.208 0-9.456 4.333-9.456 9.683S6.648 47 11.856 47c4.944 0 8.976-3.922 9.36-8.908.816-.581 2.952-1.67 5.568.048.432 4.962 4.416 8.86 9.36 8.86 5.208 0 9.456-4.333 9.456-9.683s-4.248-9.683-9.456-9.683zM11.856 44.24c-3.744 0-6.744-3.098-6.744-6.923s3.024-6.924 6.744-6.924c3.744 0 6.744 3.099 6.744 6.924s-3 6.923-6.744 6.923zm24.288 0c-3.744 0-6.744-3.098-6.744-6.923s3-6.924 6.744-6.924c3.744 0 6.768 3.099 6.768 6.924s-3.048 6.923-6.768 6.923zM48 21.582H0v3.63h48v-3.63zM32.472 2.53a2.573 2.573 0 00-3.144-1.404L24 2.917l-5.352-1.79-.12-.025a2.575 2.575 0 00-3.096 1.55L9.6 17.95h28.8l-5.856-15.3-.072-.12z" fill="#000"/></svg>
